resources/svg/flip-horizontal-o.svg

<svg width="15" height="15" viewBox="0 0 15 15" fill="none" xmlns="http://www.w3.org/2000/svg">
<path d="M3.5 0.5L3.72361 0.0527864C3.56861 -0.0247107 3.38454 -0.0164287 3.23713 0.0746746C3.08973 0.165778 3 0.326711 3 0.5L3.5 0.5ZM11.5 4.5V5C11.7319 5 11.9333 4.84056 11.9866 4.61488C12.0399 4.38919 11.931 4.15649 11.7236 4.05279L11.5 4.5ZM3.5 4.5H3C3 4.77614 3.22386 5 3.5 5V4.5ZM3.5 10.5V10C3.22386 10 3 10.2239 3 10.5H3.5ZM11.5 10.5L11.7236 10.9472C11.931 10.8435 12.0399 10.6108 11.9866 10.3851C11.9333 10.1594 11.7319 10 11.5 10V10.5ZM3.5 14.5H3C3 14.6733 3.08973 14.8342 3.23713 14.9253C3.38454 15.0164 3.56861 15.0247 3.72361 14.9472L3.5 14.5ZM3.27639 0.947214L11.2764 4.94721L11.7236 4.05279L3.72361 0.0527864L3.27639 0.947214ZM11.5 4H3.5V5H11.5V4ZM4 4.5V0.5H3V4.5H4ZM0 8H15V7H0V8ZM3.5 11H11.5V10H3.5V11ZM11.2764 10.0528L3.27639 14.0528L3.72361 14.9472L11.7236 10.9472L11.2764 10.0528ZM4 14.5V10.5H3V14.5H4Z" fill="black"/>
</svg>

<svg viewBox="0 0 15 15" fill="none" xmlns="http://www.w3.org/2000/svg" fill="currentColor"><path d="M3.5.5l.224-.447A.5.5 0 003 .5h.5zm8 4V5a.5.5 0 00.224-.947L11.5 4.5zm-8 0H3a.5.5 0 00.5.5v-.5zm0 6V10a.5.5 0 00-.5.5h.5zm8 0l.224.447A.5.5 0 0011.5 10v.5zm-8 4H3a.5.5 0 00.724.447L3.5 14.5zM3.276.947l8 4 .448-.894-8-4-.448.894zM11.5 4h-8v1h8V4zM4 4.5v-4H3v4h1zM0 8h15V7H0v1zm3.5 3h8v-1h-8v1zm7.776-.947l-8 4 .448.894 8-4-.448-.894zM4 14.5v-4H3v4h1z" fill="currentColor"/></svg>
